X:1
T:Matrimony, 76.76
T:Matrimony, 76.76
T:John Stainer, 1889
T:Public Domain Courtesy of the Cyber Hymnal™
C:John Stainer, 1889
Z:Public Domain
Z:Courtesy of the Cyber Hymnal™
%%score ( 1 2 ) ( 3 4 )
L:1/8
M:3/4
K:Eb
V:1 treble 
V:2 treble 
V:3 bass 
V:4 bass 
V:1
 G2 | (G2 A2) [GB]2 | [FB]4 F2 | [EA]6 | [DA]4 [EG]2 | [CG]4 [CF]2 | E4 [DF]2 | [EG]6- | %8
 [EG]4 [FB]2 | [Ee]4 [Gd]2 | [Gc]4 [^Fd]2 | [Gc]6 | [GB]4 [EB]2 | A4 C2 | E4 [A,D]2 | [G,E]6- | %16
 [G,E]4 |] %17
V:2
 G2 | G4 x2 | x4 F2 | x6 | x6 | x6 | B,2 C2 x2 | x6 | x6 | x6 | x6 | x6 | x6 | E2 D2 C2 | %14
 C2 B,2 x2 | x6 | x4 |] %17
V:3
 [E,B,]2 | [E,E]4 [E,E]2 | [E,D]4 [E,D]2 | [E,C]6 | [F,_C]4 [G,B,]2 | A,4 [A,,A,]2 | %6
 [B,,G,]4 [B,,B,]2 | [E,B,]6- | [E,B,]4 [D,B,]2 | [C,C]4 [D,B,]2 | [E,=A,]4 [D,D]2 | [G,D]6 | %12
 (D2 E2) [G,_D]2 | C2 B,2 [A,,A,]2 | A,2 G,2 [B,,F,]2 | E,6- | E,4 |] %17
V:4
 x2 | x6 | x6 | x6 | x6 | A,4 x2 | x6 | x6 | x6 | x6 | x6 | x6 | G,4 x2 | A,4 x2 | B,,4 x2 | E,6- | %16
 E,4 |] %17

